icon-themes/sifr_svg/cmd/lc_dbnewform.svg

<svg viewBox="0 0 24 24" xmlns="http://www.w3.org/2000/svg"><path d="m3 1c-.554 0-1 .446-1 1v19c0 .554.446 1 1 1h11v-2h-9v-2h9v-1h-9v-2h12v-1h-12v-2h14v2h3v-12c0-.554-.446-1-1-1zm2 2h13v2h-13zm0 3h14v2h-14zm0 3h14v2h-14zm13.001953 6.001953v2.998047h-2.998047v3h2.998047v3h3v-3h2.998047v-3h-2.998047v-2.998047z" fill="#555753"/></svg>

<svg xmlns="http://www.w3.org/2000/svg" viewBox="0 0 24 24">
 <path
     style="fill:#555753"
     d="M 3 1 C 2.446 1 2 1.446 2 2 L 2 21 C 2 21.554 2.446 22 3 22 L 14 22 L 14 20 L 5 20 L 5 18 L 14 18 L 14 17 L 5 17 L 5 15 L 17 15 L 17 14 L 5 14 L 5 12 L 19 12 L 19 14 L 22 14 L 22 2 C 22 1.446 21.554 1 21 1 L 3 1 z M 5 3 L 18 3 L 18 5 L 5 5 L 5 3 z M 5 6 L 19 6 L 19 8 L 5 8 L 5 6 z M 5 9 L 19 9 L 19 11 L 5 11 L 5 9 z M 18.001953 15.001953 L 18.001953 18 L 15.003906 18 L 15.003906 21 L 18.001953 21 L 18.001953 24 L 21.001953 24 L 21.001953 21 L 24 21 L 24 18 L 21.001953 18 L 21.001953 15.001953 L 18.001953 15.001953 z "
     />
 </svg>
